src/assets/duotone/ShieldCross.svg

<svg width="24" height="24" viewBox="0 0 24 24"  xmlns="http://www.w3.org/2000/svg">
<path opacity="0.4" d="M10.9598 2.06008L5.4598 4.12008C4.4098 4.52008 3.5498 5.76008 3.5498 6.89008V14.9901C3.5498 15.8001 4.0798 16.8701 4.7298 17.3501L10.2298 21.4601C11.1998 22.1901 12.7898 22.1901 13.7598 21.4601L19.2598 17.3501C19.9098 16.8601 20.4398 15.8001 20.4398 14.9901V6.89008C20.4398 5.77008 19.5798 4.52008 18.5298 4.13008L13.0298 2.07008C12.4698 1.85008 11.5298 1.85008 10.9598 2.06008Z" />
<path d="M14.6798 12.9101L13.0898 11.3201L14.6398 9.77014C14.9298 9.48014 14.9298 9.00014 14.6398 8.71014C14.3498 8.42014 13.8698 8.42014 13.5798 8.71014L12.0298 10.2601L10.4398 8.67014C10.1498 8.38014 9.6698 8.38014 9.3798 8.67014C9.0898 8.96014 9.0898 9.44014 9.3798 9.73014L10.9698 11.3201L9.3298 12.9601C9.0398 13.2501 9.0398 13.7301 9.3298 14.0201C9.4798 14.1701 9.6698 14.2401 9.8598 14.2401C10.0498 14.2401 10.2398 14.1701 10.3898 14.0201L12.0298 12.3801L13.6198 13.9701C13.7698 14.1201 13.9598 14.1901 14.1498 14.1901C14.3398 14.1901 14.5298 14.1201 14.6798 13.9701C14.9698 13.6701 14.9698 13.2001 14.6798 12.9101Z" />
</svg>

<?xml version="1.0" encoding="UTF-8"?>
<svg width="24" height="24" viewBox="0 0 24 24" xmlns="http://www.w3.org/2000/svg">
 <path d="m10.96 2.0601-5.5 2.06c-1.05 0.4-1.91 1.64-1.91 2.77v8.1c0 0.81 0.53 1.88 1.18 2.36l5.5 4.11c0.97 0.73 2.56 0.73 3.53 0l5.5-4.11c0.65-0.49 1.18-1.55 1.18-2.36v-8.1c0-1.12-0.86-2.37-1.91-2.76l-5.5-2.06c-0.56-0.22-1.5-0.22-2.07-0.01z" opacity=".4"/>
 <path d="m14.68 12.91-1.59-1.59 1.55-1.55c0.29-0.29 0.29-0.77 0-1.06s-0.77-0.29-1.06 0l-1.55 1.55-1.59-1.59c-0.29-0.29-0.77-0.29-1.06 0s-0.29 0.77 0 1.06l1.59 1.59-1.64 1.64c-0.29 0.29-0.29 0.77 0 1.06 0.15 0.15 0.34 0.22 0.53 0.22s0.38-0.07 0.53-0.22l1.64-1.64 1.59 1.59c0.15 0.15 0.34 0.22 0.53 0.22s0.38-0.07 0.53-0.22c0.29-0.3 0.29-0.77 0-1.06z"/>
</svg>
